X: 4
T: The Fox On The Town
R: reel
M: 4/4
L: 1/8
K: Gmaj
gedB edBA|GdBG DG (3Bcd|gedB eAfA|geed e2ga|bgfa gedB|G2BG DG (3Bcd|efgb ~a3f|1 gbaf g2ba:|2 gbaf g2z2|||:be~e2 bege|deBe dega|bggf g2be|degb ~a3f|g2ge dedB|G2 (3Bcd edBd|efgb ~a3f|1 gbaf g2z2:|2 gbaf g2ba||


Tune 341	Setting 13129

